packages/bezier-icons/icons/error-diamond-filled.svg

<svg width="24" height="24" viewBox="0 0 24 24" fill="none" xmlns="http://www.w3.org/2000/svg">
<path fill-rule="evenodd" clip-rule="evenodd" d="M6.34312 4.65686C8.32321 2.67677 9.31325 1.68673 10.4549 1.31579C11.4591 0.989495 12.5408 0.989495 13.5451 1.31579C14.6867 1.68673 15.6767 2.67677 17.6568 4.65685L19.3431 6.34314C21.3232 8.32322 22.3132 9.31327 22.6842 10.4549C23.0105 11.4591 23.0105 12.5409 22.6842 13.5451C22.3132 14.6867 21.3232 15.6768 19.3431 17.6569L17.6568 19.3431C15.6768 21.3232 14.6867 22.3133 13.5451 22.6842C12.5408 23.0105 11.4591 23.0105 10.4549 22.6842C9.31325 22.3133 8.32321 21.3232 6.34312 19.3431L4.65683 17.6569C2.67675 15.6768 1.6867 14.6867 1.31576 13.5451C0.989472 12.5409 0.989472 11.4591 1.31576 10.4549C1.6867 9.31327 2.67674 8.32323 4.65682 6.34315L6.34312 4.65686ZM12.0005 18.8C11.2277 18.8 10.6 18.1733 10.6 17.4005C10.6 16.6267 11.2277 16 12.0005 16C12.7733 16 13.4 16.6267 13.4 17.4005C13.4 18.1733 12.7733 18.8 12.0005 18.8ZM12 6C11.1872 6 10.5429 6.68582 10.5936 7.49708L10.9376 13.0019C10.9727 13.563 11.4379 14 12 14C12.5621 14 13.0273 13.563 13.0624 13.0019L13.4064 7.49708C13.4571 6.68582 12.8128 6 12 6Z" fill="#313234"/>
</svg>

<svg xmlns="http://www.w3.org/2000/svg" width="24" height="24" fill="none" viewBox="0 0 24 24"><path fill="#313234" fill-rule="evenodd" d="M6.343 4.657c1.98-1.98 2.97-2.97 4.112-3.341a5 5 0 0 1 3.09 0c1.142.37 2.132 1.36 4.112 3.34l1.686 1.687c1.98 1.98 2.97 2.97 3.341 4.112a5 5 0 0 1 0 3.09c-.37 1.142-1.36 2.132-3.34 4.112l-1.687 1.686c-1.98 1.98-2.97 2.97-4.112 3.341a5 5 0 0 1-3.09 0c-1.142-.37-2.132-1.36-4.112-3.34l-1.686-1.687c-1.98-1.98-2.97-2.97-3.341-4.112a5 5 0 0 1 0-3.09c.37-1.142 1.36-2.132 3.34-4.112zM12.001 18.8a1.4 1.4 0 1 1 0-2.801 1.4 1.4 0 0 1 0 2.801M12 6a1.41 1.41 0 0 0-1.406 1.497l.344 5.505a1.064 1.064 0 0 0 2.124 0l.344-5.505A1.41 1.41 0 0 0 12 6" clip-rule="evenodd"/></svg>
